X:1
T:Castle
R:Hornpipe
O:?
M:2/4
C:K.Colbath-Ashley MacIsaac, Buddy MacMaster, Richard Wood
K:A
E|:CEAE CEAE|CEAc ec A2|dcBc defg|aecA BAFA|CEAE CEAE|DFAF DFAF|
EGBG EGBG|A2 AA A3 :|cd|edcd eaga|fedc B2 Bc|dcBc dfef|gfed c2 cd|
eaga faga|ebab gbab|ec'bc' d'efg|a2 aa a2 cd|:ecAE CEAc|fdBG E2 Bc|
dBGE B,EGB|cAEC A,2 cd|ecAc dcdf|agaf fecA|Bcdf eBGB|A2 AA A2 cd:||

